svg/source.svg

<?xml version="1.0" encoding="UTF-8"?>
<svg xmlns="http://www.w3.org/2000/svg" xmlns:xlink="http://www.w3.org/1999/xlink" width="32" height="32" viewBox="0 0 32 32">
<path fill-rule="nonzero" fill="rgb(0%, 0%, 0%)" fill-opacity="1" d="M 18.640625 4.699219 L 10.960938 26.460938 L 13.359375 27.300781 L 21.039062 5.539062 Z M 6.359375 8.558594 L 0.800781 15.179688 L 0.121094 16 L 0.800781 16.820312 L 6.359375 23.460938 L 8.339844 21.820312 L 3.460938 16 L 8.320312 10.199219 Z M 25.640625 8.558594 L 23.679688 10.199219 L 28.539062 16 L 23.679688 21.800781 L 25.660156 23.441406 L 31.179688 16.820312 L 31.859375 16 L 31.179688 15.179688 Z M 25.640625 8.558594 "/>
</svg>

<svg role="img" viewBox="0 0 32 32" xmlns="http://www.w3.org/2000/svg"><path d="m18.64 4.7-7.68 21.76 2.4.84 7.68-21.76ZM6.36 8.558.8 15.179.122 16l.68.82 5.558 6.64 1.98-1.64L3.462 16l4.86-5.8Zm19.28 0-1.96 1.64L28.54 16l-4.86 5.8 1.98 1.641 5.52-6.62.68-.821-.68-.82Zm0 0" fill="rgb(0%, 0%, 0%)"/></svg>
